static/assets/template/assets/img/icons/essential/detailed/Link.svg

<svg height="148" viewBox="0 0 148 148" width="148" xmlns="http://www.w3.org/2000/svg"><g fill="none" fill-rule="evenodd" transform="translate(1 1)"><g fill-rule="nonzero"><path d="m79.9 88.9c-.4-1.8-1.1-3.6-1.9-5.3-1.3-2.7-3.1-5.2-5.3-7.5l-3-3c-.6-.6-1.2-1.1-1.8-1.6-10.9-9.2-27.3-8.7-37.6 1.6l-21.4 21.4c-9 9-10.5 22.7-4.6 33.3 1.2 2.2 2.7 4.2 4.6 6l3 3c5.4 5.4 12.5 8.1 19.7 8.1 7.1 0 14.2-2.7 19.7-8.1l21.4-21.4c7.1-7.2 9.5-17.3 7.2-26.5zm-60.5 16 21.4-21.4c2.5-2.5 5.9-3.8 9.2-3.8s6.7 1.3 9.2 3.8l3 3c2.2 2.2 3.5 5.1 3.8 8 .3 3.7-.9 7.6-3.8 10.4l-21.4 21.4c-5.1 5.1-13.3 5.1-18.4 0l-3-3c-.4-.4-.7-.8-1-1.2-4-5-3.7-12.5 1-17.2z"/><path d="m144.2 24.6c-1.2-4.7-3.6-9.1-7.3-12.8l-3-3c-10.8-10.8-28.5-10.8-39.3 0l-21.4 21.4c-9 9-10.5 22.7-4.6 33.3 1.2 2.2 2.7 4.2 4.6 6l3 3c5.4 5.4 12.5 8.1 19.7 8.1 7.1 0 14.3-2.7 19.7-8.1l21.4-21.4c7.1-7.2 9.5-17.3 7.2-26.5zm-60.5 16 21.4-21.4c2.5-2.5 5.9-3.8 9.2-3.8s6.7 1.3 9.2 3.8l3 3c2.2 2.2 3.5 5 3.7 7.9.4 3.7-.9 7.6-3.7 10.4l-21.5 21.5c-5.1 5.1-13.3 5.1-18.4 0l-3-3c-.4-.4-.7-.8-1-1.2-4-5-3.6-12.5 1.1-17.2z"/><path d="m79.9 88.9c-1.2-2.2-2.7-4.2-4.6-6l-3-3c-10.8-10.8-28.5-10.8-39.3 0l-21.4 21.4c-7.2 7.2-9.6 17.3-7.3 26.5 1.2 2.2 2.7 4.2 4.6 6l3 3c5.4 5.4 12.5 8.1 19.7 8.1 7.1 0 14.2-2.7 19.7-8.1l21.4-21.4c7.1-7.2 9.5-17.3 7.2-26.5zm-18.2 16.3-21.4 21.4c-5.1 5.1-13.3 5.1-18.4 0l-3-3c-2.2-2.2-.3 1.5-.6-1.4-4-5.1-3.7-12.5 1-17.2l21.4-21.4c2.5-2.5 5.9-3.8 9.2-3.8s6.7 1.3 9.2 3.8l3 3c2.2 2.2 3.5 5.1 3.8 8 .2 5.1.5 5.9-4.2 10.6z"/><path d="m144.2 24.6c-1.2-2.2-2.7-4.2-4.6-6l-3-3c-10.8-10.8-28.5-10.8-39.3 0l-21.4 21.4c-7.2 7.2-9.6 17.3-7.3 26.5 1.2 2.2 2.7 4.2 4.6 6l3 3c5.4 5.4 12.5 8.1 19.7 8.1 7.1 0 14.3-2.7 19.7-8.1l21.4-21.4c7.1-7.2 9.5-17.3 7.2-26.5zm-18 15.5-21.4 21.4c-5.1 5.1-13.3 5.1-18.4 0l-3-3c-2.2-2.2-.6 2.3-.8-.6-4-5.1-3.6-12.5 1-17.2l21.4-21.4c2.5-2.5 5.9-3.8 9.2-3.8s6.7 1.3 9.2 3.8l3 3c2.2 2.2 3.5 5 3.7 7.9.7 5.1.8 5.2-3.9 9.9z"/><path d="m48.7 104.4c-1.9 0-3.8-.7-5.2-2.2-2.9-2.9-2.9-7.6 0-10.5l49.2-49.2c2.9-2.9 7.6-2.9 10.5 0s2.9 7.6 0 10.5l-49.2 49.2c-1.5 1.5-3.4 2.2-5.3 2.2z"/></g><path d="m31.6 144.9c-7.1 0-14.2-2.7-19.7-8.1l-3-3c-10.8-10.8-10.8-28.5 0-39.3l21.4-21.4c10.8-10.8 28.5-10.8 39.3 0l3 3c10.8 10.8 10.8 28.5 0 39.3l-21.4 21.4c-5.4 5.4-12.5 8.1-19.6 8.1zm-12.2-40c-5.1 5.1-5.1 13.3 0 18.4l3 3c5.1 5.1 13.3 5.1 18.4 0l21.4-21.4c5.1-5.1 5.1-13.3 0-18.4l-3-3c-2.5-2.5-5.9-3.8-9.2-3.8s-6.7 1.3-9.2 3.8l-12.3 12.3z" stroke-linecap="round" stroke-linejoin="round" stroke-width="3.2"/><path d="m94.6 8.8c10.8-10.8 28.5-10.8 39.3 0l3 3c10.8 10.8 10.8 28.5 0 39.3l-21.4 21.4c-5.4 5.4-12.5 8.1-19.7 8.1-7.1 0-14.2-2.7-19.7-8.1l-3-3c-10.8-10.8-10.8-28.5 0-39.3l11.3-11.3m3.8-3.7.1-.1m10 50.5c2.5-.5 4.9-1.7 6.8-3.6l21.4-21.4c5.1-5.1 5.1-13.3 0-18.4l-3-3c-2.5-2.5-5.9-3.8-9.2-3.8s-6.7 1.3-9.2 3.8l-21.4 21.4c-5.1 5.1-5.1 13.3 0 18.4l3 3c1.3 1.3 2.8 2.2 4.3 2.9" stroke-linecap="round" stroke-linejoin="round" stroke-width="3.2"/><path d="m105.2 48.9c-.2 1.5-.9 3-2.1 4.2l-49.2 49.2c-1.5 1.4-3.3 2.2-5.2 2.2s-3.8-.7-5.2-2.2c-.3-.3-.5-.6-.7-.9-2.1-2.9-1.9-7 .7-9.6l49.2-49.2c2.9-2.9 7.6-2.9 10.5 0 1.6 1.7 2.4 4 2 6.3z" fill-rule="nonzero"/><path d="m105.2 48.9c-.2 1.5-.9 3-2.1 4.2l-49.2 49.2c-1.5 1.4-3.3 2.2-5.2 2.2s-3.8-.7-5.2-2.2c-.3-.3-.5-.6-.7-.9.2-1.5.9-3 2.1-4.2l49.2-49.2c2.9-2.9 7.6-2.9 10.5 0 .2.3.4.6.6.9z" fill-rule="nonzero"/><path d="m54.6 80.6 15.2-15.2" stroke-linecap="round" stroke-linejoin="round" stroke-width="3.2"/><path d="m76 59.2 16.6-16.6c2.9-2.9 7.6-2.9 10.5 0s2.9 7.6 0 10.5l-49.2 49.2c-1.4 1.4-3.3 2.2-5.2 2.2s-3.8-.7-5.2-2.2c-2.9-2.9-2.9-7.6 0-10.5l4.7-4.7" stroke-linecap="round" stroke-linejoin="round" stroke-width="3.2"/></g></svg>

<?xml version="1.0" encoding="UTF-8"?>
<svg width="148px" height="148px" viewBox="0 0 148 148" version="1.1" xmlns="http://www.w3.org/2000/svg" xmlns:xlink="http://www.w3.org/1999/xlink">
    <!-- Generator: Sketch 51.2 (57519) - http://www.bohemiancoding.com/sketch -->
    <title>Link</title>
    <desc>Created with Sketch.</desc>
    <defs></defs>
    <g id="Page-1" stroke="none" stroke-width="1" fill="none" fill-rule="evenodd">
        <g id="Link" transform="translate(1.000000, 1.000000)">
            <path d="M79.9,88.9 C79.5,87.1 78.8,85.3 78,83.6 C76.7,80.9 74.9,78.4 72.7,76.1 L69.7,73.1 C69.1,72.5 68.5,72 67.9,71.5 C57,62.3 40.6,62.8 30.3,73.1 L8.9,94.5 C-0.1,103.5 -1.6,117.2 4.3,127.8 C5.5,130 7,132 8.9,133.8 L11.9,136.8 C17.3,142.2 24.4,144.9 31.6,144.9 C38.7,144.9 45.8,142.2 51.3,136.8 L72.7,115.4 C79.8,108.2 82.2,98.1 79.9,88.9 Z M19.4,104.9 L40.8,83.5 C43.3,81 46.7,79.7 50,79.7 C53.3,79.7 56.7,81 59.2,83.5 L62.2,86.5 C64.4,88.7 65.7,91.6 66,94.5 C66.3,98.2 65.1,102.1 62.2,104.9 L40.8,126.3 C35.7,131.4 27.5,131.4 22.4,126.3 L19.4,123.3 C19,122.9 18.7,122.5 18.4,122.1 C14.4,117.1 14.7,109.6 19.4,104.9 Z" id="Shape" class="fill-neutral" fill-rule="nonzero"></path>
            <path d="M144.2,24.6 C143,19.9 140.6,15.5 136.9,11.8 L133.9,8.8 C123.1,-2 105.4,-2 94.6,8.8 L73.2,30.2 C64.2,39.2 62.7,52.9 68.6,63.5 C69.8,65.7 71.3,67.7 73.2,69.5 L76.2,72.5 C81.6,77.9 88.7,80.6 95.9,80.6 C103,80.6 110.2,77.9 115.6,72.5 L137,51.1 C144.1,43.9 146.5,33.8 144.2,24.6 Z M83.7,40.6 L105.1,19.2 C107.6,16.7 111,15.4 114.3,15.4 C117.6,15.4 121,16.7 123.5,19.2 L126.5,22.2 C128.7,24.4 130,27.2 130.2,30.1 C130.6,33.8 129.3,37.7 126.5,40.5 L105,62 C99.9,67.1 91.7,67.1 86.6,62 L83.6,59 C83.2,58.6 82.9,58.2 82.6,57.8 C78.6,52.8 79,45.3 83.7,40.6 Z" id="Shape" class="fill-neutral" fill-rule="nonzero"></path>
            <path d="M79.9,88.9 C78.7,86.7 77.2,84.7 75.3,82.9 L72.3,79.9 C61.5,69.1 43.8,69.1 33,79.9 L11.6,101.3 C4.4,108.5 2,118.6 4.3,127.8 C5.5,130 7,132 8.9,133.8 L11.9,136.8 C17.3,142.2 24.4,144.9 31.6,144.9 C38.7,144.9 45.8,142.2 51.3,136.8 L72.7,115.4 C79.8,108.2 82.2,98.1 79.9,88.9 Z M61.7,105.2 L40.3,126.6 C35.2,131.7 27,131.7 21.9,126.6 L18.9,123.6 C16.7,121.4 18.6,125.1 18.3,122.2 C14.3,117.1 14.6,109.7 19.3,105 L40.7,83.6 C43.2,81.1 46.6,79.8 49.9,79.8 C53.2,79.8 56.6,81.1 59.1,83.6 L62.1,86.6 C64.3,88.8 65.6,91.7 65.9,94.6 C66.1,99.7 66.4,100.5 61.7,105.2 Z" id="Shape" class="fill-primary-100" fill-rule="nonzero"></path>
            <path d="M144.2,24.6 C143,22.4 141.5,20.4 139.6,18.6 L136.6,15.6 C125.8,4.8 108.1,4.8 97.3,15.6 L75.9,37 C68.7,44.2 66.3,54.3 68.6,63.5 C69.8,65.7 71.3,67.7 73.2,69.5 L76.2,72.5 C81.6,77.9 88.7,80.6 95.9,80.6 C103,80.6 110.2,77.9 115.6,72.5 L137,51.1 C144.1,43.9 146.5,33.8 144.2,24.6 Z M126.2,40.1 L104.8,61.5 C99.7,66.6 91.5,66.6 86.4,61.5 L83.4,58.5 C81.2,56.3 82.8,60.8 82.6,57.9 C78.6,52.8 79,45.4 83.6,40.7 L105,19.3 C107.5,16.8 110.9,15.5 114.2,15.5 C117.5,15.5 120.9,16.8 123.4,19.3 L126.4,22.3 C128.6,24.5 129.9,27.3 130.1,30.2 C130.8,35.3 130.9,35.4 126.2,40.1 Z" id="Shape" class="fill-primary-100" fill-rule="nonzero"></path>
            <path d="M48.7,104.4 C46.8,104.4 44.9,103.7 43.5,102.2 C40.6,99.3 40.6,94.6 43.5,91.7 L92.7,42.5 C95.6,39.6 100.3,39.6 103.2,42.5 C106.1,45.4 106.1,50.1 103.2,53 L54,102.2 C52.5,103.7 50.6,104.4 48.7,104.4 Z" id="Shape" class="fill-neutral" fill-rule="nonzero"></path>
            <path d="M31.6,144.9 C24.5,144.9 17.4,142.2 11.9,136.8 L8.9,133.8 C-1.9,123 -1.9,105.3 8.9,94.5 L30.3,73.1 C41.1,62.3 58.8,62.3 69.6,73.1 L72.6,76.1 C83.4,86.9 83.4,104.6 72.6,115.4 L51.2,136.8 C45.8,142.2 38.7,144.9 31.6,144.9 Z M19.4,104.9 C14.3,110 14.3,118.2 19.4,123.3 L22.4,126.3 C27.5,131.4 35.7,131.4 40.8,126.3 L62.2,104.9 C67.3,99.8 67.3,91.6 62.2,86.5 L59.2,83.5 C56.7,81 53.3,79.7 50,79.7 C46.7,79.7 43.3,81 40.8,83.5 L28.5,95.8 L19.4,104.9 Z" id="Shape" class="stroke-primary" stroke-width="3.2" stroke-linecap="round" stroke-linejoin="round"></path>
            <path d="M94.6,8.8 C105.4,-2 123.1,-2 133.9,8.8 L136.9,11.8 C147.7,22.6 147.7,40.3 136.9,51.1 L115.5,72.5 C110.1,77.9 103,80.6 95.8,80.6 C88.7,80.6 81.6,77.9 76.1,72.5 L73.1,69.5 C62.3,58.7 62.3,41 73.1,30.2 L84.4,18.9 M88.2,15.2 L88.3,15.1 M98.3,65.6 C100.8,65.1 103.2,63.9 105.1,62 L126.5,40.6 C131.6,35.5 131.6,27.3 126.5,22.2 L123.5,19.2 C121,16.7 117.6,15.4 114.3,15.4 C111,15.4 107.6,16.7 105.1,19.2 L83.7,40.6 C78.6,45.7 78.6,53.9 83.7,59 L86.7,62 C88,63.3 89.5,64.2 91,64.9" id="Shape" class="stroke-primary" stroke-width="3.2" stroke-linecap="round" stroke-linejoin="round"></path>
            <path d="M105.2,48.9 C105,50.4 104.3,51.9 103.1,53.1 L53.9,102.3 C52.4,103.7 50.6,104.5 48.7,104.5 C46.8,104.5 44.9,103.8 43.5,102.3 C43.2,102 43,101.7 42.8,101.4 C40.7,98.5 40.9,94.4 43.5,91.8 L92.7,42.6 C95.6,39.7 100.3,39.7 103.2,42.6 C104.8,44.3 105.6,46.6 105.2,48.9 Z" id="Shape" class="fill-neutral" fill-rule="nonzero"></path>
            <path d="M105.2,48.9 C105,50.4 104.3,51.9 103.1,53.1 L53.9,102.3 C52.4,103.7 50.6,104.5 48.7,104.5 C46.8,104.5 44.9,103.8 43.5,102.3 C43.2,102 43,101.7 42.8,101.4 C43,99.9 43.7,98.4 44.9,97.2 L94.1,48 C97,45.1 101.7,45.1 104.6,48 C104.8,48.3 105,48.6 105.2,48.9 Z" id="Shape" class="fill-primary-100" fill-rule="nonzero"></path>
            <path d="M54.6,80.6 L69.8,65.4" id="Shape" class="stroke-primary" stroke-width="3.2" stroke-linecap="round" stroke-linejoin="round"></path>
            <path d="M76,59.2 L92.6,42.6 C95.5,39.7 100.2,39.7 103.1,42.6 C106,45.5 106,50.2 103.1,53.1 L53.9,102.3 C52.5,103.7 50.6,104.5 48.7,104.5 C46.8,104.5 44.9,103.8 43.5,102.3 C40.6,99.4 40.6,94.7 43.5,91.8 L48.2,87.1" id="Shape" class="stroke-primary" stroke-width="3.2" stroke-linecap="round" stroke-linejoin="round"></path>
        </g>
    </g>
</svg>
